trunk/public/assets/images/icons/green/pause/visibility-invisible.svg

<svg width="16" height="16" xmlns="http://www.w3.org/2000/svg" viewBox="0 0 16 16" shape-rendering="geometricPrecision" fill="#00962d"><defs><mask id="a"><rect fill="#fff" width="100%" height="100%"/><path d="M13.135-1h-3.5500000000000003v7.956h6.415000000000001v-7.956z"/></mask></defs><g fill="#cb1800"><path d="M10.585 0h1.55v5.956h-1.55zM13.45 0h1.55v5.956h-1.55z"/></g><path d="M8 12.965c-3.308 0-6.327-1.819-7.88-4.746l-.116-.218.116-.219c1.552-2.928 4.572-4.747 7.88-4.747 3.306 0 6.326 1.819 7.88 4.747l.117.219-.117.219c-1.555 2.927-4.574 4.745-7.88 4.745zm-6.935-4.964c1.422 2.493 4.056 4.031 6.935 4.031 2.877 0 5.511-1.538 6.935-4.031-1.424-2.494-4.058-4.033-6.935-4.033-2.879 0-5.513 1.539-6.935 4.033z" mask="url(#a)"/></svg>

<svg width="16" height="16" xmlns="http://www.w3.org/2000/svg" viewBox="0 0 16 16" shape-rendering="geometricPrecision" fill="#00962d"><defs><mask id="a"><rect fill="#fff" width="100%" height="100%"/><path d="M13.135-1h-3.55v7.956H16V-1z"/></mask></defs><path d="M10.585 0h1.55v5.956h-1.55zm2.865 0H15v5.956h-1.55z" fill="#cb1800"/><path d="M8 12.965A8.905 8.905 0 0 1 .12 8.219l-.116-.218.116-.219A8.903 8.903 0 0 1 8 3.035a8.907 8.907 0 0 1 7.88 4.747l.117.219-.117.219A8.908 8.908 0 0 1 8 12.965zM1.065 8.001A7.97 7.97 0 0 0 8 12.032a7.974 7.974 0 0 0 6.935-4.031A7.974 7.974 0 0 0 8 3.968a7.969 7.969 0 0 0-6.935 4.033z" mask="url(#a)"/></svg>
